T: John Stenson's
M: 4/4
L: 1/8
K: Amaj
|:ABcA B2cB|ABcA BAFB|ABcA B2cd|e2cA BAFA|
ABcA B2cB|ABcA BAFA|d3c dfed|1cABG AFEF||
|:e2 cA e2 cA|e2 cA BAFA|e2 cA e2 cA|B2 dB BAFA|
e2 cA e2 cA|e2 cA BAFA|d2dc dfed|cABG AFEF||
